svgs/sharp-solid/house.svg

<svg xmlns="http://www.w3.org/2000/svg" viewBox="0 0 576 512"><!--! Font Awesome Pro 6.6.0 by @fontawesome - https://fontawesome.com License - https://fontawesome.com/license (Commercial License) Copyright 2024 Fonticons, Inc. --><path d="M511.8 287.6l64.2 0 0-47.6L288.4 0 0 240l0 47.6 64.1 0 0 224.4L224 512l0-160 128 0 0 160 160.8 0-1-224.4z"/></svg>

<svg xmlns="http://www.w3.org/2000/svg" viewBox="0 0 576 512"><!--! Font Awesome Pro 6.4.0 by @fontawesome - https://fontawesome.com License - https://fontawesome.com/license (Commercial License) Copyright 2023 Fonticons, Inc. --><path d="M511.8 287.6H576V240L288.4 0 0 240v47.6H64.1V512H224V352H352V512H512.8l-1-224.4z"/></svg>
